build/img-landing/svg/cap2.svg

<svg width="75" height="75" viewBox="0 0 75 75" fill="none" xmlns="http://www.w3.org/2000/svg">
<path d="M60.4872 35.6324H58.0659V38.0536H60.4872V35.6324Z" fill="#E30613"/>
<path d="M60.4872 40.4749H58.0659V42.8962H60.4872V40.4749Z" fill="#E30613"/>
<path d="M60.4872 45.3174H58.0659V47.7387H60.4872V45.3174Z" fill="#E30613"/>
<path d="M59.2765 4.28888C54.6112 4.28888 50.8021 8.08317 50.8021 12.7633C50.8021 17.4434 54.6112 21.2377 59.2765 21.2377C63.9419 21.2377 67.7509 17.4434 67.7509 12.7633C67.7509 8.08317 63.9567 4.28888 59.2765 4.28888ZM59.2765 18.8312C55.9399 18.8312 53.2234 16.1147 53.2234 12.7781C53.2234 9.44144 55.9399 6.7249 59.2765 6.7249C62.6131 6.7249 65.3297 9.44144 65.3297 12.7781C65.3297 16.1147 62.6131 18.8312 59.2765 18.8312Z" fill="#E30613"/>
<path d="M29.631 34.5398V23.5408H27.2097V34.5398C24.9361 35.0566 23.2087 37.0054 23.002 39.3824V38.6589H16.1812V41.0802H23.002V40.3568C23.253 43.1471 25.5709 45.3469 28.4203 45.3469C31.4321 45.3469 33.8829 42.8961 33.8829 39.8843C33.8977 37.2711 32.067 35.0861 29.631 34.5398ZM28.4203 42.9109C26.7373 42.9109 25.3642 41.5379 25.3642 39.8548C25.3642 38.1717 26.7373 36.7987 28.4203 36.7987C30.1034 36.7987 31.4764 38.1717 31.4764 39.8548C31.4764 41.5379 30.1034 42.9109 28.4203 42.9109Z" fill="#E30613"/>
<path d="M64.7835 22.3597L64.1339 22.3154L59.2766 28.782L54.4193 22.3154L53.7697 22.3597C52.8691 22.4188 51.998 22.596 51.1713 22.8469C45.812 15.6865 37.3819 11.4345 28.4203 11.4345C12.7559 11.4345 0 24.1904 0 39.8696C0 55.5487 12.7559 68.2899 28.4203 68.2899C36.5404 68.2899 44.2323 64.8056 49.5915 58.8263V70.7111H68.9469V51.3558H75V33.2111C75 27.468 70.5118 22.6993 64.7835 22.3597ZM49.6211 54.9582C47.6427 57.6895 45.2067 59.9779 42.4606 61.7347L41.2795 59.6826L39.1831 60.8932L40.3789 62.9601C37.0866 64.658 33.4252 65.6619 29.6457 65.8391V60.2879H27.2244V65.8095C23.3711 65.6324 19.7392 64.6284 16.5059 62.9454L17.687 60.8932L15.5906 59.6826L14.4094 61.7347C11.2648 59.7121 8.59252 57.0399 6.56988 53.8804L8.62205 52.6993L7.41142 50.6029L5.35925 51.784C3.67618 48.5507 2.67224 44.9188 2.49508 41.0654H8.01673V38.6442H2.48031C2.65748 34.7908 3.66142 31.159 5.34449 27.9257L7.39665 29.1068L8.60728 27.0103L6.55512 25.8292C8.57776 22.6845 11.25 20.0123 14.3947 17.9897L15.5758 20.0271L17.6722 18.8164L16.4911 16.7643C19.7244 15.0812 23.3563 14.0773 27.2096 13.9001V19.4217H29.6309V13.9001C33.4104 14.0773 37.0571 15.0812 40.3494 16.779L39.1683 18.8312L41.2648 20.0418L42.4606 17.9897C44.8967 19.5546 47.0817 21.533 48.9124 23.8509C48.5285 24.0723 48.1742 24.3233 47.8346 24.5891C47.7461 24.6481 47.6722 24.7219 47.5984 24.781C47.3474 24.9729 47.1112 25.1944 46.8898 25.4011C46.7864 25.4897 46.6978 25.5782 46.6093 25.6816C46.3435 25.9621 46.0925 26.2426 45.8563 26.5527C45.7677 26.6708 45.6791 26.8036 45.5905 26.9217C45.4429 27.1284 45.2953 27.3499 45.1624 27.5566C45.0738 27.7042 44.9852 27.8519 44.8967 28.0143C44.7638 28.2653 44.6457 28.5162 44.5276 28.7672C44.4685 28.8853 44.4095 28.9887 44.3652 29.1068C44.2175 29.4759 44.0846 29.845 43.9813 30.2436C43.9518 30.3617 43.9222 30.4946 43.8927 30.6275C43.8189 30.9227 43.7598 31.2328 43.7156 31.5428C43.7008 31.6757 43.6713 31.7938 43.6565 31.9267C43.6122 32.3548 43.5679 32.783 43.5679 33.2111V51.3558H49.6211V54.9582ZM72.5935 48.9345H72.5787H66.5256V68.2899H60.4724V51.3263H58.0512V68.2899H51.998V55.7259V48.9345H45.9449V33.2111C45.9449 32.8273 45.9744 32.4582 46.0335 32.0743C46.0482 32.0005 46.0482 31.9119 46.063 31.8381C46.122 31.4838 46.1959 31.1442 46.2992 30.8046C46.3287 30.7308 46.3435 30.657 46.373 30.5832C46.4616 30.2879 46.5797 30.0074 46.7126 29.7269C46.7421 29.6678 46.7717 29.594 46.8012 29.5349C46.9488 29.2249 47.126 28.9444 47.3032 28.6639C47.3622 28.5753 47.4213 28.4867 47.4803 28.4129C47.6722 28.1324 47.8789 27.8666 48.1004 27.6156C48.1447 27.5714 48.189 27.5271 48.2333 27.4828C48.4695 27.2318 48.7205 26.9956 48.9862 26.7593C49.0157 26.7446 49.0305 26.7151 49.06 26.7003C49.3701 26.4493 49.6949 26.2131 50.0492 26.0064C50.064 26.0064 50.0787 25.9916 50.0787 25.9916C50.4331 25.7849 50.8022 25.593 51.2008 25.4306L51.3632 25.3716C51.9685 25.1353 52.6181 24.9582 53.2825 24.8696L59.2766 32.842L65.2707 24.8696C69.4193 25.4306 72.5935 29.0034 72.5935 33.2554V48.9345Z" fill="#E30613"/>
</svg>

<svg width="75" height="75" viewBox="0 0 75 75" fill="none" xmlns="http://www.w3.org/2000/svg"><path d="M60.487 35.632h-2.421v2.422h2.421v-2.422zm0 4.843h-2.421v2.421h2.421v-2.421zm0 4.842h-2.421v2.422h2.421v-2.422zM59.276 4.289c-4.665 0-8.474 3.794-8.474 8.474s3.81 8.475 8.474 8.475c4.666 0 8.475-3.795 8.475-8.475a8.475 8.475 0 0 0-8.475-8.474zm0 14.542a6.061 6.061 0 0 1-6.053-6.053 6.061 6.061 0 0 1 6.053-6.053 6.061 6.061 0 0 1 6.054 6.053 6.061 6.061 0 0 1-6.053 6.053zM29.631 34.54v-11H27.21v11a5.455 5.455 0 0 0-4.208 4.842v-.723h-6.82v2.421h6.82v-.723c.251 2.79 2.569 4.99 5.418 4.99a5.47 5.47 0 0 0 5.463-5.463 5.452 5.452 0 0 0-4.252-5.344zm-1.21 8.37a3.062 3.062 0 0 1-3.057-3.055 3.062 3.062 0 0 1 3.056-3.056 3.062 3.062 0 0 1 3.056 3.056 3.062 3.062 0 0 1-3.056 3.056z" fill="#E30613"/><path d="M64.784 22.36l-.65-.045-4.857 6.467-4.858-6.467-.65.045c-.9.059-1.771.236-2.598.487-5.359-7.16-13.79-11.413-22.75-11.413C12.755 11.434 0 24.19 0 39.87c0 15.679 12.756 28.42 28.42 28.42 8.12 0 15.812-3.484 21.172-9.464v11.885h19.355V51.356H75V33.21c0-5.743-4.488-10.512-10.216-10.851zM49.62 54.958a26.453 26.453 0 0 1-7.16 6.777l-1.181-2.052-2.097 1.21 1.196 2.067a26.106 26.106 0 0 1-10.733 2.88v-5.552h-2.422v5.522a25.705 25.705 0 0 1-10.718-2.865l1.181-2.052-2.096-1.21-1.182 2.052a26 26 0 0 1-7.84-7.855l2.053-1.18-1.21-2.097-2.053 1.181a25.705 25.705 0 0 1-2.864-10.719h5.522v-2.42H2.48a25.704 25.704 0 0 1 2.864-10.72l2.053 1.182 1.21-2.097-2.052-1.18a26.117 26.117 0 0 1 7.84-7.84l1.18 2.037 2.097-1.21-1.18-2.053A25.705 25.705 0 0 1 27.21 13.9v5.522h2.42V13.9a26.041 26.041 0 0 1 10.72 2.879l-1.182 2.052 2.097 1.21 1.196-2.051a26.44 26.44 0 0 1 6.451 5.86 9.236 9.236 0 0 0-1.077.74c-.089.058-.163.132-.237.191a9.72 9.72 0 0 0-.708.62 2.502 2.502 0 0 0-.28.28 10.64 10.64 0 0 0-.754.872c-.088.118-.177.25-.266.369-.147.206-.295.428-.428.635-.088.147-.177.295-.265.457-.133.251-.251.502-.37.753-.059.118-.117.222-.162.34a9.37 9.37 0 0 0-.384 1.137c-.03.118-.059.25-.088.384a9.095 9.095 0 0 0-.177.915c-.015.133-.045.25-.06.384a12.51 12.51 0 0 0-.088 1.284v18.145h6.053v3.602zm22.973-6.023h-6.068V68.29h-6.054V51.326h-2.42V68.29h-6.054V48.935h-6.053V33.21c0-.384.03-.753.088-1.137.015-.073.015-.162.03-.236.059-.354.133-.694.236-1.033.03-.074.044-.148.074-.222a6.1 6.1 0 0 1 .34-.856c.03-.06.059-.133.088-.192.148-.31.325-.59.502-.871.06-.089.118-.177.177-.251.192-.28.399-.546.62-.797l.133-.133c.236-.251.488-.487.753-.724.03-.014.045-.044.074-.059.31-.25.635-.487.99-.694.014 0 .029-.014.029-.014a8.843 8.843 0 0 1 1.122-.561l.162-.06a8.34 8.34 0 0 1 1.92-.501l5.994 7.972 5.994-7.972c4.148.56 7.323 4.133 7.323 8.385v15.68z" fill="#E30613"/></svg>
